static/img/pictograms/picto-pack/picto-internet-orange.svg

<svg xmlns="http://www.w3.org/2000/svg" width="400" height="400" viewBox="0 0 400 400"><g><path fill="#DD4814" d="M199.996.002C89.716.002 0 89.72 0 199.998s89.718 200 199.996 200S400 310.276 400 199.998 310.278.002 199.996.002zM347.91 175.177H224.693v-28.092c32.942-7.412 60.448-29.302 75.473-58.62 24.727 22.224 42.023 52.528 47.742 86.712zm-173.215-80.7c-14.52-6.46-26.14-18.282-32.32-32.947 10.247-4.28 21.077-7.43 32.32-9.35v42.296zm50-42.41c11.464 1.91 22.496 5.102 32.934 9.462-6.266 14.876-18.13 26.828-32.936 33.224V52.068zM99.834 88.462c14.93 29.14 42.186 50.94 74.86 58.48v28.237h-122.6c5.718-34.184 23.015-64.488 47.74-86.716zM52.16 225.173h122.534v27.746c-32.706 7.55-59.986 29.386-74.905 58.575-24.61-22.143-41.854-52.3-47.63-86.32zm122.537 122.65c-11.26-1.923-22.11-5.08-32.367-9.37 6.163-14.72 17.812-26.59 32.367-33.062v42.432zm50-42.71c14.84 6.406 26.725 18.408 32.98 33.337-10.45 4.366-21.502 7.566-32.98 9.478v-42.816zm75.522 6.382c-15.014-29.37-42.545-51.297-75.52-58.716v-27.605h123.148c-5.775 34.02-23.018 64.177-47.628 86.32z"/></g></svg>

<?xml version="1.0" encoding="utf-8"?>
<!-- Generator: Adobe Illustrator 17.0.2, SVG Export Plug-In . SVG Version: 6.00 Build 0)  -->
<!DOCTYPE svg PUBLIC "-//W3C//DTD SVG 1.1//EN" "http://www.w3.org/Graphics/SVG/1.1/DTD/svg11.dtd">
<svg version="1.1" xmlns="http://www.w3.org/2000/svg" xmlns:xlink="http://www.w3.org/1999/xlink" x="0px" y="0px" width="400px"
	 height="400px" viewBox="0 0 400 400" enable-background="new 0 0 400 400" xml:space="preserve">
<g id="BK" display="none">
	<rect x="-1100" y="-2080" display="inline" fill="#FFFFFF" width="5100" height="4060"/>
</g>
<g id="Comp">
	<g id="_x33_8">
		<path fill="#DD4814" d="M199.996,0.002C89.715,0.002,0,89.72,0,199.998s89.718,200,199.996,200S400,310.276,400,199.998
			S310.278,0.002,199.996,0.002z M347.909,175.177H224.694v-28.092c32.942-7.412,60.448-29.302,75.473-58.621
			C324.894,110.689,342.19,140.993,347.909,175.177z M174.695,94.476c-14.52-6.459-26.141-18.281-32.321-32.946
			c10.248-4.279,21.078-7.43,32.321-9.349V94.476z M224.694,52.068c11.465,1.909,22.497,5.101,32.935,9.461
			c-6.265,14.877-18.129,26.829-32.935,33.225V52.068z M99.836,88.461c14.93,29.139,42.185,50.938,74.859,58.48v28.236H52.095
			C57.813,140.993,75.11,110.689,99.836,88.461z M52.158,225.172h122.534v27.746c-32.706,7.549-59.986,29.386-74.905,58.575
			C75.177,289.35,57.933,259.194,52.158,225.172z M174.695,347.822c-11.261-1.923-22.109-5.08-32.367-9.37
			c6.163-14.721,17.812-26.589,32.367-33.062V347.822z M224.694,305.112c14.841,6.406,26.726,18.408,32.981,33.337
			c-10.449,4.367-21.502,7.567-32.981,9.479V305.112z M300.217,311.494c-15.014-29.369-42.545-51.297-75.519-58.716v-27.605h123.147
			C342.07,259.194,324.827,289.35,300.217,311.494z"/>
	</g>
</g>
</svg>
